brandFactory_export/1.Light/Comprar celulares_1Light.svg

<?xml version="1.0" encoding="UTF-8"?>
<svg width="24px" height="24px" viewBox="0 0 24 24" version="1.1" xmlns="http://www.w3.org/2000/svg" xmlns:xlink="http://www.w3.org/1999/xlink">
    <title>1.Light/Comprar celulares_1Light</title>
    <g id="Symbols" stroke="none" stroke-width="1" fill="none" fill-rule="evenodd">
        <g id="1.Light/Comprar-celulares_1Light" fill="#5CB615" fill-rule="nonzero">
            <path d="M10.1714286,20.3193277 C11.2168067,20.3193277 11.8184874,20.9210084 11.8184874,21.9663866 C11.8184874,23.0117647 11.2201681,23.6134454 10.1714286,23.6134454 C9.12605042,23.6134454 8.52436975,23.0117647 8.52436975,21.9663866 C8.52436975,20.9210084 9.12605042,20.3193277 10.1714286,20.3193277 Z M16.7260504,20.3193277 C17.7714286,20.3193277 18.3731092,20.9210084 18.3731092,21.9663866 C18.3731092,23.0117647 17.7747899,23.6134454 16.7260504,23.6134454 C15.6806723,23.6134454 15.0789916,23.0117647 15.0789916,21.9663866 C15.0789916,20.9210084 15.6806723,20.3193277 16.7260504,20.3193277 Z M10.1714286,20.9915966 C9.49579832,20.9915966 9.19663866,21.2907563 9.19663866,21.9663866 C9.19663866,22.6420168 9.49579832,22.9411765 10.1714286,22.9411765 C10.8470588,22.9411765 11.1462185,22.6420168 11.1462185,21.9663866 C11.1462185,21.2907563 10.8470588,20.9915966 10.1714286,20.9915966 Z M16.7260504,20.9915966 C16.0504202,20.9915966 15.7512605,21.2907563 15.7512605,21.9663866 C15.7512605,22.6420168 16.0504202,22.9411765 16.7260504,22.9411765 C17.4016807,22.9411765 17.7008403,22.6420168 17.7008403,21.9663866 C17.7008403,21.2907563 17.4016807,20.9915966 16.7260504,20.9915966 Z M2.30588235,-1.35536027e-12 C3.01176471,-1.35536027e-12 3.69747899,0.221848739 4.23529412,0.628571429 C4.78319328,1.03865546 5.14621849,1.61344538 5.2605042,2.24537815 C5.3289433,2.62959767 5.57794508,4.10791547 5.87744166,5.89885198 L10.1573613,5.899 L10.1579832,2.04369748 C10.1579832,0.685714286 10.8369748,-1.0906831e-12 12.1781513,-1.0906831e-12 L16.6789916,-1.0906831e-12 C18.0369748,-1.0906831e-12 18.6991597,0.668907563 18.6991597,2.04369748 L18.6983613,5.902 L23.2806723,5.90252101 C23.4655462,5.90252101 23.6168067,6.05378151 23.6168067,6.23865546 C23.6168067,6.26554622 23.6134454,6.29579832 23.6067227,6.32268908 C23.4218487,7.05546218 23.0722689,8.46386555 22.6991597,9.95630252 C22.2487395,11.7714286 21.7815126,13.6470588 21.6403361,14.1915966 C21.3378151,15.3613445 20.9008403,16.2184874 20.312605,16.810084 C19.7042017,17.4084034 18.9411765,17.7142857 18.0369748,17.7142857 L10.1714286,17.7142857 C9.25378151,17.7142857 8.44033613,17.4084034 7.82521008,16.8268908 C7.1697479,16.2084034 6.74621849,15.3109244 6.56134454,14.1546218 C6.38991597,13.0756303 4.78655462,3.43529412 4.59495798,2.36302521 C4.51092437,1.89915966 4.24201681,1.47563025 3.82857143,1.16638655 C3.40840336,0.847058824 2.86722689,0.672268908 2.30588235,0.672268908 L0.339495798,0.672268908 C0.154621849,0.672268908 0.0033613445,0.521008403 0.0033613445,0.336134454 C0.0033613445,0.151260504 0.154621849,-1.35536027e-12 0.339495798,-1.35536027e-12 L2.30588235,-1.35536027e-12 Z M10.1573613,6.571 L5.98985539,6.57154222 C6.50952502,9.6833757 7.12623235,13.4041932 7.22689076,14.0504202 C7.52941176,15.9798319 8.57815126,17.0453782 10.1714286,17.0453782 L18.0369748,17.0453782 C18.7663866,17.0453782 19.3546218,16.810084 19.8352941,16.3294118 C20.3327731,15.8319328 20.7193277,15.0554622 20.9882353,14.0201681 C21.1294118,13.4789916 21.5932773,11.6033613 22.0470588,9.79159664 C22.3563025,8.54789916 22.6521008,7.35798319 22.8504202,6.57478992 L18.6983613,6.574 L18.6991597,11.0789916 C18.6957983,12.4571429 18.0369748,13.1260504 16.6789916,13.1260504 L12.1781513,13.1260504 C10.8201681,13.1260504 10.1579832,12.4571429 10.1579832,11.0823529 L10.1573613,6.571 Z M16.6789916,0.672268908 L12.1781513,0.672268908 C11.210084,0.672268908 10.8302521,1.05882353 10.8302521,2.04369748 L10.8302521,11.0789916 C10.8302521,11.5865546 10.9310924,11.9361345 11.1361345,12.1445378 C11.3411765,12.3529412 11.6806723,12.4504202 12.1781513,12.4504202 L16.6789916,12.4504202 C17.1764706,12.4504202 17.5193277,12.3495798 17.7210084,12.1445378 C17.9226891,11.9394958 18.0268908,11.5865546 18.0268908,11.0789916 L18.0268908,2.04369748 C18.0268908,1.04201681 17.6605042,0.672268908 16.6789916,0.672268908 Z M14.4268908,9.79831933 C14.8571429,9.79831933 15.1361345,10.0235294 15.1327731,10.507563 C15.1327731,10.7428571 15.0689076,10.9142857 14.9546218,11.0319328 C14.8302521,11.1596639 14.6487395,11.2201681 14.4268908,11.2201681 C14.205042,11.2201681 14.0235294,11.1596639 13.8991597,11.0319328 C13.7848739,10.9142857 13.7210084,10.7394958 13.7210084,10.507563 C13.7210084,10.0235294 13.9966387,9.79831933 14.4268908,9.79831933 Z" id="Comprar-celulares_1Light"></path>
        </g>
    </g>
</svg>

<svg width="24" height="24" viewBox="0 0 24 24" xmlns="http://www.w3.org/2000/svg"><path d="M10.171 20.32c1.046 0 1.647.601 1.647 1.646 0 1.046-.598 1.647-1.647 1.647-1.045 0-1.647-.601-1.647-1.647 0-1.045.602-1.647 1.647-1.647zm6.555 0c1.045 0 1.647.601 1.647 1.646 0 1.046-.598 1.647-1.647 1.647-1.045 0-1.647-.601-1.647-1.647 0-1.045.602-1.647 1.647-1.647zm-6.555.672c-.675 0-.974.299-.974.974 0 .676.299.975.974.975.676 0 .975-.299.975-.975 0-.675-.299-.974-.975-.974zm6.555 0c-.676 0-.975.299-.975.974 0 .676.3.975.975.975.676 0 .975-.299.975-.975 0-.675-.3-.974-.975-.974zM2.306 0a3.21 3.21 0 011.93.629c.547.41.91.984 1.025 1.616.068.385.317 1.863.616 3.654h4.28l.001-3.855c0-1.358.679-2.044 2.02-2.044h4.501c1.358 0 2.02.669 2.02 2.044v3.858h4.582a.337.337 0 01.326.42c-.185.733-.535 2.142-.908 3.634-.45 1.815-.917 3.691-1.059 4.236-.302 1.17-.74 2.026-1.327 2.618-.609.598-1.372.904-2.276.904h-7.866c-.917 0-1.73-.306-2.346-.887-.655-.619-1.079-1.516-1.264-2.672-.171-1.08-1.774-10.72-1.966-11.792a1.932 1.932 0 00-.766-1.197A2.524 2.524 0 002.306.672H.339A.337.337 0 01.003.336C.003.151.155 0 .34 0h1.967zm7.851 6.571H5.99c.52 3.112 1.136 6.833 1.237 7.48.302 1.929 1.351 2.994 2.944 2.994h7.866c.73 0 1.318-.235 1.798-.716.498-.497.884-1.274 1.153-2.309.141-.541.605-2.417 1.06-4.228.308-1.244.604-2.434.802-3.217l-4.152-.001.001 4.505c-.003 1.378-.662 2.047-2.02 2.047h-4.5c-1.359 0-2.021-.669-2.021-2.044V6.571zM16.68.672h-4.5c-.969 0-1.349.387-1.349 1.372v9.035c0 .508.101.857.306 1.066.205.208.545.305 1.042.305h4.501c.497 0 .84-.1 1.042-.305.202-.206.306-.558.306-1.066V2.044c0-1.002-.366-1.372-1.348-1.372zm-2.252 9.126c.43 0 .71.226.706.71 0 .235-.064.406-.178.524-.125.128-.306.188-.528.188-.222 0-.403-.06-.528-.188-.114-.118-.178-.293-.178-.524 0-.484.276-.71.706-.71z" fill="#5CB615" fill-rule="nonzero"/></svg>
